X:819
T:Robert Menzies
R:Strathspey
C:"D.Mc.K."
B:The Athole Collection
M:C|
L:1/8
K:A
f|e>Ac>A cd/e/ c>A|e>Ac>A (3cde (3fga|e>Ac>A cd/e/ c>A|e>ac>a b>Bd:|
f|e>ae>c a>ce>c|e>ae>c f>Bd>f|e>ae>c A/B/c/d/ e>c|e>ac>a b>Bd>f|
e>ae>c a>ce>c|A>ce>c f>Bd>f|(3efg (3agf (3edc (3ecA|E>Ac>e b>Bd||

